(G-CODE GENERATED BY FLATCAM v8.991 - www.flatcam.org - Version Date: 2019/12/27)

(Name: drill_1_16.xln_cnc)
(Type: G-code from Excellon)
(Units: MM)

(Created on Thursday, 08 October 2020 at 10:45)

(Feedrate: 300.0 mm/min)
(Feedrate rapids 1500.0 mm/min)

(Z_Cut: -0.08 mm)
(Z_Move: 2.0 mm)
(Z Toolchange: 15.0 mm)
(X,Y Toolchange: 0.0000, 0.0000 mm)
(Z Start: None mm)
(Z End: 5.0 mm)
(Steps per circle: 64)
(Preprocessor Excellon: default)

(X range:    2.3000 ...   71.5000  mm)
(Y range:    7.2350 ...   33.8000  mm)

(Spindle Speed: 2000.0 RPM)
G21
G90
G94




G01 F300.00
G00 Z2.0000

M03 S2000.0
G00 X38.0000 Y32.5000
G01 Z-0.0800
G01 Z0
G00 Z2.0000
G00 X39.4000 Y33.5000
G01 Z-0.0800
G01 Z0
G00 Z2.0000
G00 X39.5000 Y30.6000
G01 Z-0.0800
G01 Z0
G00 Z2.0000
G00 X41.0000 Y31.7000
G01 Z-0.0800
G01 Z0
G00 Z2.0000
G00 X41.7000 Y33.6000
G01 Z-0.0800
G01 Z0
G00 Z2.0000
G00 X43.1000 Y33.6000
G01 Z-0.0800
G01 Z0
G00 Z2.0000
G00 X48.0000 Y31.5000
G01 Z-0.0800
G01 Z0
G00 Z2.0000
G00 X53.5000 Y31.8000
G01 Z-0.0800
G01 Z0
G00 Z2.0000
G00 X63.3000 Y33.4000
G01 Z-0.0800
G01 Z0
G00 Z2.0000
G00 X61.9000 Y32.5000
G01 Z-0.0800
G01 Z0
G00 Z2.0000
G00 X57.7000 Y27.2000
G01 Z-0.0800
G01 Z0
G00 Z2.0000
G00 X54.6500 Y27.7500
G01 Z-0.0800
G01 Z0
G00 Z2.0000
G00 X50.7300 Y24.3300
G01 Z-0.0800
G01 Z0
G00 Z2.0000
G00 X49.6230 Y23.2230
G01 Z-0.0800
G01 Z0
G00 Z2.0000
G00 X50.5000 Y22.0000
G01 Z-0.0800
G01 Z0
G00 Z2.0000
G00 X54.5530 Y20.5060
G01 Z-0.0800
G01 Z0
G00 Z2.0000
G00 X53.4470 Y19.4000
G01 Z-0.0800
G01 Z0
G00 Z2.0000
G00 X51.1000 Y17.7000
G01 Z-0.0800
G01 Z0
G00 Z2.0000
G00 X51.1000 Y20.0000
G01 Z-0.0800
G01 Z0
G00 Z2.0000
G00 X48.5000 Y19.5000
G01 Z-0.0800
G01 Z0
G00 Z2.0000
G00 X46.4000 Y18.2000
G01 Z-0.0800
G01 Z0
G00 Z2.0000
G00 X44.5000 Y19.1000
G01 Z-0.0800
G01 Z0
G00 Z2.0000
G00 X43.4000 Y20.2000
G01 Z-0.0800
G01 Z0
G00 Z2.0000
G00 X42.7000 Y22.0000
G01 Z-0.0800
G01 Z0
G00 Z2.0000
G00 X41.8000 Y22.8000
G01 Z-0.0800
G01 Z0
G00 Z2.0000
G00 X41.8000 Y24.0000
G01 Z-0.0800
G01 Z0
G00 Z2.0000
G00 X43.8000 Y25.4000
G01 Z-0.0800
G01 Z0
G00 Z2.0000
G00 X45.7000 Y28.1000
G01 Z-0.0800
G01 Z0
G00 Z2.0000
G00 X40.7000 Y27.7000
G01 Z-0.0800
G01 Z0
G00 Z2.0000
G00 X39.8000 Y26.6000
G01 Z-0.0800
G01 Z0
G00 Z2.0000
G00 X40.2000 Y25.5000
G01 Z-0.0800
G01 Z0
G00 Z2.0000
G00 X37.9000 Y21.9000
G01 Z-0.0800
G01 Z0
G00 Z2.0000
G00 X36.8000 Y21.5000
G01 Z-0.0800
G01 Z0
G00 Z2.0000
G00 X34.6000 Y19.8000
G01 Z-0.0800
G01 Z0
G00 Z2.0000
G00 X34.3000 Y18.6940
G01 Z-0.0800
G01 Z0
G00 Z2.0000
G00 X32.2500 Y18.1500
G01 Z-0.0800
G01 Z0
G00 Z2.0000
G00 X30.0000 Y18.0000
G01 Z-0.0800
G01 Z0
G00 Z2.0000
G00 X27.7320 Y19.1680
G01 Z-0.0800
G01 Z0
G00 Z2.0000
G00 X27.0000 Y20.0000
G01 Z-0.0800
G01 Z0
G00 Z2.0000
G00 X27.5000 Y16.1000
G01 Z-0.0800
G01 Z0
G00 Z2.0000
G00 X29.7000 Y15.2000
G01 Z-0.0800
G01 Z0
G00 Z2.0000
G00 X30.4000 Y16.1000
G01 Z-0.0800
G01 Z0
G00 Z2.0000
G00 X32.7000 Y16.0000
G01 Z-0.0800
G01 Z0
G00 Z2.0000
G00 X34.0800 Y14.3200
G01 Z-0.0800
G01 Z0
G00 Z2.0000
G00 X34.6500 Y16.2500
G01 Z-0.0800
G01 Z0
G00 Z2.0000
G00 X36.3000 Y15.5000
G01 Z-0.0800
G01 Z0
G00 Z2.0000
G00 X38.3000 Y16.6000
G01 Z-0.0800
G01 Z0
G00 Z2.0000
G00 X37.2000 Y17.6000
G01 Z-0.0800
G01 Z0
G00 Z2.0000
G00 X37.7350 Y19.5000
G01 Z-0.0800
G01 Z0
G00 Z2.0000
G00 X38.6000 Y20.2000
G01 Z-0.0800
G01 Z0
G00 Z2.0000
G00 X39.6000 Y17.6000
G01 Z-0.0800
G01 Z0
G00 Z2.0000
G00 X40.4680 Y16.0680
G01 Z-0.0800
G01 Z0
G00 Z2.0000
G00 X41.8000 Y17.4000
G01 Z-0.0800
G01 Z0
G00 Z2.0000
G00 X42.2000 Y16.3000
G01 Z-0.0800
G01 Z0
G00 Z2.0000
G00 X44.4000 Y15.6000
G01 Z-0.0800
G01 Z0
G00 Z2.0000
G00 X49.3000 Y13.5000
G01 Z-0.0800
G01 Z0
G00 Z2.0000
G00 X52.6500 Y12.5500
G01 Z-0.0800
G01 Z0
G00 Z2.0000
G00 X47.0000 Y8.8000
G01 Z-0.0800
G01 Z0
G00 Z2.0000
G00 X40.1000 Y8.6000
G01 Z-0.0800
G01 Z0
G00 Z2.0000
G00 X37.9000 Y8.9000
G01 Z-0.0800
G01 Z0
G00 Z2.0000
G00 X36.2000 Y8.7000
G01 Z-0.0800
G01 Z0
G00 Z2.0000
G00 X30.0000 Y8.0000
G01 Z-0.0800
G01 Z0
G00 Z2.0000
G00 X26.6000 Y8.9000
G01 Z-0.0800
G01 Z0
G00 Z2.0000
G00 X25.2000 Y8.6000
G01 Z-0.0800
G01 Z0
G00 Z2.0000
G00 X25.0000 Y7.4350
G01 Z-0.0800
G01 Z0
G00 Z2.0000
G00 X20.8000 Y15.3000
G01 Z-0.0800
G01 Z0
G00 Z2.0000
G00 X23.7000 Y14.6000
G01 Z-0.0800
G01 Z0
G00 Z2.0000
G00 X24.5000 Y15.5000
G01 Z-0.0800
G01 Z0
G00 Z2.0000
G00 X23.4000 Y18.2000
G01 Z-0.0800
G01 Z0
G00 Z2.0000
G00 X23.6000 Y20.1000
G01 Z-0.0800
G01 Z0
G00 Z2.0000
G00 X23.8500 Y21.5400
G01 Z-0.0800
G01 Z0
G00 Z2.0000
G00 X23.0000 Y23.7000
G01 Z-0.0800
G01 Z0
G00 Z2.0000
G00 X18.8000 Y26.3000
G01 Z-0.0800
G01 Z0
G00 Z2.0000
G00 X18.4000 Y29.7000
G01 Z-0.0800
G01 Z0
G00 Z2.0000
G00 X16.0000 Y30.2000
G01 Z-0.0800
G01 Z0
G00 Z2.0000
G00 X14.9000 Y32.8000
G01 Z-0.0800
G01 Z0
G00 Z2.0000
G00 X16.3000 Y32.3000
G01 Z-0.0800
G01 Z0
G00 Z2.0000
G00 X17.0500 Y33.1500
G01 Z-0.0800
G01 Z0
G00 Z2.0000
G00 X18.2000 Y33.2000
G01 Z-0.0800
G01 Z0
G00 Z2.0000
G00 X21.9000 Y33.1000
G01 Z-0.0800
G01 Z0
G00 Z2.0000
G00 X21.4000 Y30.3000
G01 Z-0.0800
G01 Z0
G00 Z2.0000
G00 X23.0000 Y31.1000
G01 Z-0.0800
G01 Z0
G00 Z2.0000
G00 X25.5000 Y31.6000
G01 Z-0.0800
G01 Z0
G00 Z2.0000
G00 X26.1000 Y30.3000
G01 Z-0.0800
G01 Z0
G00 Z2.0000
G00 X24.2000 Y27.0000
G01 Z-0.0800
G01 Z0
G00 Z2.0000
G00 X24.7000 Y25.2000
G01 Z-0.0800
G01 Z0
G00 Z2.0000
G00 X27.0000 Y25.3000
G01 Z-0.0800
G01 Z0
G00 Z2.0000
G00 X29.0000 Y23.4000
G01 Z-0.0800
G01 Z0
G00 Z2.0000
G00 X29.9000 Y22.1000
G01 Z-0.0800
G01 Z0
G00 Z2.0000
G00 X31.7000 Y23.0000
G01 Z-0.0800
G01 Z0
G00 Z2.0000
G00 X33.6940 Y22.0000
G01 Z-0.0800
G01 Z0
G00 Z2.0000
G00 X34.9000 Y22.1000
G01 Z-0.0800
G01 Z0
G00 Z2.0000
G00 X35.1000 Y23.2000
G01 Z-0.0800
G01 Z0
G00 Z2.0000
G00 X33.6000 Y25.7000
G01 Z-0.0800
G01 Z0
G00 Z2.0000
G00 X32.0000 Y25.3000
G01 Z-0.0800
G01 Z0
G00 Z2.0000
G00 X30.5000 Y27.4000
G01 Z-0.0800
G01 Z0
G00 Z2.0000
G00 X32.5300 Y27.5000
G01 Z-0.0800
G01 Z0
G00 Z2.0000
G00 X31.6000 Y29.2000
G01 Z-0.0800
G01 Z0
G00 Z2.0000
G00 X30.1000 Y29.7000
G01 Z-0.0800
G01 Z0
G00 Z2.0000
G00 X30.4000 Y32.6000
G01 Z-0.0800
G01 Z0
G00 Z2.0000
G00 X32.1000 Y32.5000
G01 Z-0.0800
G01 Z0
G00 Z2.0000
M03 S2000.0
G00 X69.5000 Y30.9000
G01 Z-0.0800
G01 Z0
G00 Z2.0000
G00 X69.5000 Y9.5000
G01 Z-0.0800
G01 Z0
G00 Z2.0000
G00 X4.5000 Y9.6000
G01 Z-0.0800
G01 Z0
G00 Z2.0000
G00 X4.3000 Y31.0000
G01 Z-0.0800
G01 Z0
G00 Z2.0000
M05
G00 Z5.00
G00 X0.0 Y0.0

